小程序/退出登录.svg

<svg width="15" height="16">
  <path fill="#000" fill-rule="evenodd" d="M6.40948406 14.2861328c.21028751 0 .37906837.0664056.50634765.1992188.12727929.1328131.19091797.3043609.19091797.5146484 0 .2102875-.06363868.3818353-.19091797.5146484-.12727928.1328132-.29606014.1992188-.50634765.1992188H2.85674968c-.59765924 0-1.10123493-.2047506-1.51074218-.6142578-.40950726-.4095073-.61425782-.913083-.61425782-1.5107422V2.25c0-.59765924.20475056-1.10123493.61425782-1.51074219C1.75551475.32975056 2.25909044.125 2.85674968.125h3.55273438c.21028751 0 .37906837.06363869.50634765.19091797.12727929.12727928.19091797.30159394.19091797.52294922 0 .21028751-.06363868.37906837-.19091797.50634765-.12727928.12727929-.29606014.19091797-.50634765.19091797H2.85674968c-.21028751 0-.37906837.06640559-.50634765.19921875-.12727929.13281317-.19091797.30436093-.19091797.51464844v11.3388672c0 .2102875.06363868.3790684.19091797.5063476.12727928.1272793.29606014.190918.50634765.190918h3.55273438zm8.41699214-6.09277342c0 .04427105-.0138345.08300764-.0415039.11621093-.0276694.03320329-.0581053.06640609-.0913086.09960938l-2.8388671 2.83886721c-.0664066.0664066-.1466467.1189776-.2407227.1577148-.094076.0387372-.1798499.0581055-.2573242.0581055-.0664066 0-.1466467-.0193683-.2407227-.0581055-.094076-.0387372-.1798498-.0913082-.2573242-.1577148-.1328132-.143881-.1992187-.3098949-.1992187-.4980469 0-.188152.0664055-.3541659.1992187-.4980469L12.5022575 8.625H5.69561687c-.21028751 0-.38183527-.06363869-.51464844-.19091797-.13281316-.12727928-.19921875-.30159394-.19921875-.52294922 0-.21028751.06640559-.37906837.19921875-.50634765.13281317-.12727929.30436093-.19091797.51464844-.19091797h6.80664063l-1.6435547-1.62695313c-.1328132-.14388093-.1992187-.30989489-.1992187-.49804687s.0664055-.35416595.1992187-.49804688c.1438809-.14388093.3098949-.21582031.4980469-.21582031.188152 0 .3541659.07193938.4980469.21582031l2.8388671 2.82226563c.0332033.04427105.0553385.08300764.0664063.11621094.0110678.03320329.033203.06640608.0664062.09960937.0442711.11067764.0664063.21581981.0664063.31542969 0 .09960987-.0221352.18261685-.0664063.24902344z"/>
</svg>

<?xml version="1.0" encoding="UTF-8"?>
<svg width="15px" height="16px" viewBox="0 0 15 16" version="1.1" xmlns="http://www.w3.org/2000/svg" xmlns:xlink="http://www.w3.org/1999/xlink">
    <!-- Generator: Sketch 50 (54983) - http://www.bohemiancoding.com/sketch -->
    <title>退出登录</title>
    <desc>Created with Sketch.</desc>
    <defs></defs>
    <g id="Page-1" stroke="none" stroke-width="1" fill="none" fill-rule="evenodd">
        <g id="退出登录" fill="#000000">
            <path d="M6.40948406,14.2861328 C6.61977157,14.2861328 6.78855243,14.3525384 6.91583171,14.4853516 C7.043111,14.6181647 7.10674968,14.7897125 7.10674968,15 C7.10674968,15.2102875 7.043111,15.3818353 6.91583171,15.5146484 C6.78855243,15.6474616 6.61977157,15.7138672 6.40948406,15.7138672 L2.85674968,15.7138672 C2.25909044,15.7138672 1.75551475,15.5091166 1.3460075,15.0996094 C0.93650024,14.6901021 0.73174968,14.1865264 0.73174968,13.5888672 L0.73174968,2.25 C0.73174968,1.65234076 0.93650024,1.14876507 1.3460075,0.73925781 C1.75551475,0.32975056 2.25909044,0.125 2.85674968,0.125 L6.40948406,0.125 C6.61977157,0.125 6.78855243,0.18863869 6.91583171,0.31591797 C7.043111,0.44319725 7.10674968,0.61751191 7.10674968,0.83886719 C7.10674968,1.0491547 7.043111,1.21793556 6.91583171,1.34521484 C6.78855243,1.47249413 6.61977157,1.53613281 6.40948406,1.53613281 L2.85674968,1.53613281 C2.64646217,1.53613281 2.47768131,1.6025384 2.35040203,1.73535156 C2.22312274,1.86816473 2.15948406,2.03971249 2.15948406,2.25 L2.15948406,13.5888672 C2.15948406,13.7991547 2.22312274,13.9679356 2.35040203,14.0952148 C2.47768131,14.2224941 2.64646217,14.2861328 2.85674968,14.2861328 L6.40948406,14.2861328 Z M14.8264762,8.19335938 C14.8264762,8.23763043 14.8126417,8.27636702 14.7849723,8.30957031 C14.7573029,8.3427736 14.726867,8.3759764 14.6936637,8.40917969 L11.8547966,11.2480469 C11.78839,11.3144535 11.7081499,11.3670245 11.6140739,11.4057617 C11.5199979,11.4444989 11.434224,11.4638672 11.3567497,11.4638672 C11.2903431,11.4638672 11.210103,11.4444989 11.116027,11.4057617 C11.021951,11.3670245 10.9361772,11.3144535 10.8587028,11.2480469 C10.7258896,11.1041659 10.6594841,10.938152 10.6594841,10.75 C10.6594841,10.561848 10.7258896,10.3958341 10.8587028,10.2519531 L12.5022575,8.625 L5.69561687,8.625 C5.48532936,8.625 5.3137816,8.56136131 5.18096843,8.43408203 C5.04815527,8.30680275 4.98174968,8.13248809 4.98174968,7.91113281 C4.98174968,7.7008453 5.04815527,7.53206444 5.18096843,7.40478516 C5.3137816,7.27750587 5.48532936,7.21386719 5.69561687,7.21386719 L12.5022575,7.21386719 L10.8587028,5.58691406 C10.7258896,5.44303313 10.6594841,5.27701917 10.6594841,5.08886719 C10.6594841,4.90071521 10.7258896,4.73470124 10.8587028,4.59082031 C11.0025837,4.44693938 11.1685977,4.375 11.3567497,4.375 C11.5449017,4.375 11.7109156,4.44693938 11.8547966,4.59082031 L14.6936637,7.41308594 C14.726867,7.45735699 14.7490022,7.49609358 14.76007,7.52929688 C14.7711378,7.56250017 14.793273,7.59570296 14.8264762,7.62890625 C14.8707473,7.73958389 14.8928825,7.84472606 14.8928825,7.94433594 C14.8928825,8.04394581 14.8707473,8.12695279 14.8264762,8.19335938 Z" id="Shape"></path>
        </g>
    </g>
</svg>
